packages/ankr-earn/src/assets/img/logo.svg

<svg width="34" height="32" viewBox="0 0 32 34" fill="none">
  <path
    fillRule="evenodd"
    clipRule="evenodd"
    d="M18.0159 0.532112L29.0501 6.23989C30.6568 7.07134 31.655 8.71864 31.655 10.539V13.1415H27.5863V10.539C27.5863 10.2642 27.435 10.0149 27.192 9.88906L16.1585 4.18164C15.9516 4.07492 15.7044 4.07456 15.4969 4.182L4.46265 9.88906C4.21996 10.0149 4.06907 10.2642 4.06907 10.539V13.1415H0V10.539C0 8.71864 0.998187 7.07134 2.6045 6.23989L13.6394 0.532112C15.0094 -0.177371 16.6449 -0.177371 18.0159 0.532112ZM19.3093 16.8263C19.3093 14.89 17.7469 13.3154 15.8265 13.3154C13.9061 13.3154 12.3438 14.89 12.3438 16.8263C12.3438 18.7619 13.9061 20.3372 15.8265 20.3372C17.7469 20.3372 19.3093 18.7619 19.3093 16.8263ZM27.1927 24.1103C27.435 23.9848 27.5863 23.7359 27.5863 23.4607V20.8579H31.655V23.4607C31.655 25.281 30.6568 26.9284 29.0508 27.7595L18.0159 33.4672C17.3438 33.8147 16.5869 33.9991 15.8275 33.9991C15.0685 33.9991 14.3112 33.8147 13.6391 33.4672L2.60485 27.7595C0.998187 26.9284 0 25.281 0 23.4607V20.8579H4.06872V23.4607C4.06872 23.7359 4.21996 23.9848 4.463 24.1103L13.7931 28.9366V24.155C10.6146 23.2572 8.27567 20.3122 8.27567 16.8254C8.27567 12.6277 11.6635 9.21256 15.8275 9.21256C19.9915 9.21256 23.3793 12.6277 23.3793 16.8254C23.3793 20.3122 21.0404 23.2572 17.8619 24.155V28.937L27.1927 24.1103Z"
    fill="currentColor"
  />
</svg>

<svg width="34" height="32" viewBox="0 0 32 34" fill="none"><path d="M18.016.532L29.05 6.24a4.818 4.818 0 012.605 4.299v2.603h-4.069v-2.603a.73.73 0 00-.394-.65L16.158 4.182a.721.721 0 00-.661 0L4.463 9.889a.73.73 0 00-.394.65v2.603H0v-2.603c0-1.82.998-3.468 2.604-4.3L13.64.533a4.766 4.766 0 014.377 0zm1.293 16.294c0-1.936-1.562-3.51-3.483-3.51-1.92 0-3.482 1.574-3.482 3.51 0 1.936 1.562 3.511 3.482 3.511 1.92 0 3.483-1.575 3.483-3.51zm7.884 7.284a.729.729 0 00.393-.65v-2.602h4.069v2.603c0 1.82-.998 3.467-2.604 4.299l-11.035 5.707a4.786 4.786 0 01-2.188.532 4.787 4.787 0 01-2.189-.532L2.605 27.76A4.817 4.817 0 010 23.46v-2.602h4.069v2.603c0 .275.151.524.394.65l9.33 4.826v-4.782a7.616 7.616 0 01-5.517-7.33c0-4.197 3.388-7.612 7.552-7.612 4.163 0 7.551 3.415 7.551 7.612a7.616 7.616 0 01-5.517 7.33v4.782l9.33-4.827z" fill="currentColor"/></svg>
